X:1
T:Gight's Ladye
M:4/4
L:1/4
K:C
 D3/4 D/4| D D3/4 E/4 G A| E3/4- D/4F/4 G3/4 F G3/4 G/4| A A3/4 B/4 c e|\
 d2 A2| A A3/4 B/4 c c3/4 e/4| d G3/4 G/4 d d3/4 B/4| A D3/4 E/4 G A3/4 G/4|\
 E2 D||
